Origami/24x24/apps/asc-de.svg

<svg width="24" height="24" version="1.1" viewBox="0 0 24 24" xmlns="http://www.w3.org/2000/svg">
 <path d="m11.500441 12.500001c-0.63013-1.01e-4 -1.260292 0.123073-1.7266009 0.368498l-7.0748092 3.722951c-0.9326183 0.490848-0.931752 1.326614 8.65e-4 1.817463l7.0739407 3.722951c0.9326174 0.490848 2.5205854 0.490848 3.4532014 0l7.073942-3.722951c0.932616-0.490847 0.931738-1.326616-9e-4 -1.817463l-7.073039-3.722951c-0.466309-0.245425-1.09647-0.368398-1.7266-0.368498z" style="opacity:.2"/>
 <path d="m11.500441 12.000001c-0.63013-1.01e-4 -1.260292 0.123073-1.7266009 0.368498l-7.0748092 3.722951c-0.9326183 0.490848-0.931752 1.326614 8.65e-4 1.817463l7.0739407 3.722951c0.9326174 0.490848 2.5205854 0.490848 3.4532014 0l7.073942-3.722951c0.932616-0.490847 0.931738-1.326616-9e-4 -1.817463l-7.073039-3.722951c-0.466309-0.245425-1.09647-0.368398-1.7266-0.368498z" style="fill:#ea6e41"/>
 <path d="m11.5 12.000001c-0.63013-1.01e-4 -1.260254 0.122739-1.7265624 0.368164l-7.0742185 3.723632c-0.5838192 0.307271-0.8016732 0.749828-0.6542968 1.158203 0.0879275-0.243699 0.3058641-0.474818 0.6542968-0.658203l7.0742185-3.723632c0.4663084-0.245425 1.0964324-0.368265 1.7265624-0.368164 0.630131 1e-4 1.260254 0.122739 1.726562 0.368164l7.073242 3.723632c0.34844 0.183384 0.567038 0.414504 0.655274 0.658203 0.146863-0.408375-0.07144-0.850933-0.655274-1.158203l-7.073242-3.723632c-0.466308-0.245425-1.096431-0.368064-1.726562-0.368164z" style="fill:#ffffff;opacity:.2"/>
 <path d="m11.500441 7.5000008c-0.63013-1.005e-4 -1.260292 0.1230735-1.7266009 0.368498l-7.0748092 3.7229512c-0.9326183 0.490849-0.931752 1.326615 8.65e-4 1.817464l7.0739407 3.72295c0.9326174 0.490848 2.5205854 0.490848 3.4532014 0l7.073942-3.72295c0.932616-0.490848 0.931738-1.326617-9e-4 -1.817464l-7.073039-3.7229512c-0.466309-0.2454245-1.09647-0.3683975-1.7266-0.368498z" style="opacity:.2"/>
 <path d="m11.500441 7.0000008c-0.63013-1.005e-4 -1.260292 0.1230735-1.7266009 0.368498l-7.0748092 3.7229512c-0.9326183 0.490849-0.931752 1.326615 8.65e-4 1.817464l7.0739407 3.72295c0.9326174 0.490848 2.5205854 0.490848 3.4532014 0l7.073942-3.72295c0.932616-0.490848 0.931738-1.326617-9e-4 -1.817464l-7.073039-3.7229512c-0.466309-0.2454245-1.09647-0.3683975-1.7266-0.368498z" style="fill:#aed351"/>
 <path d="m11.5 7.0000008c-0.63013-1.005e-4 -1.260254 0.1227395-1.7265624 0.368164l-7.0742185 3.7236332c-0.5838192 0.307271-0.8016732 0.749828-0.6542968 1.158203 0.087927-0.243699 0.3058641-0.474819 0.6542968-0.658203l7.0742185-3.7236332c0.4663084-0.2454245 1.0964324-0.3682645 1.7265624-0.368164 0.630131 1.005e-4 1.260254 0.1227395 1.726562 0.368164l7.073242 3.7236332c0.34844 0.183384 0.567038 0.414503 0.655274 0.658203 0.146863-0.408375-0.07144-0.850933-0.655274-1.158203l-7.073242-3.7236332c-0.466308-0.2454245-1.096431-0.3680635-1.726562-0.368164z" style="fill:#ffffff;opacity:.2"/>
 <path d="m11.500441 2.5000014c-0.63013-1.005e-4 -1.260292 0.1230735-1.7266009 0.368498l-7.0748092 3.7229509c-0.9326183 0.4908485-0.931752 1.3266145 8.65e-4 1.8174635l7.0739407 3.7229512c0.9326174 0.490848 2.5205854 0.490847 3.4532014 0l7.073942-3.7229512c0.932616-0.4908475 0.931738-1.3266165-9e-4 -1.8174635l-7.073039-3.7229509c-0.466309-0.2454245-1.09647-0.3683975-1.7266-0.368498z" style="opacity:.2"/>
 <path d="m11.500441 2.0000012c-0.63013-1.005e-4 -1.260292 0.1230735-1.7266009 0.368498l-7.0748092 3.7229511c-0.9326183 0.4908485-0.931752 1.3266145 8.65e-4 1.8174635l7.0739407 3.7229512c0.9326174 0.490848 2.5205854 0.490847 3.4532014 0l7.073942-3.7229512c0.932616-0.4908475 0.931738-1.3266165-9e-4 -1.8174635l-7.073039-3.7229511c-0.466309-0.2454245-1.09647-0.3683975-1.7266-0.368498z" style="fill:#3b9dda"/>
 <path d="m11.5 2.000001c-0.63013-1.005e-4 -1.260254 0.1227396-1.7265624 0.368164l-7.0742185 3.7236328c-0.5838192 0.307271-0.8016732 0.749828-0.6542968 1.158203 0.0879275-0.243699 0.3058641-0.4748185 0.6542968-0.658203l7.0742185-3.7236328c0.4663084-0.2454245 1.0964324-0.3682645 1.7265624-0.368164 0.630131 1.005e-4 1.260254 0.1227395 1.726562 0.368164l7.073242 3.7236328c0.34844 0.183384 0.567038 0.4145035 0.655274 0.658203 0.146863-0.408375-0.07144-0.850933-0.655274-1.158203l-7.073242-3.7236328c-0.466308-0.2454244-1.096431-0.3680635-1.726562-0.368164z" style="fill:#ffffff;opacity:.2"/>
</svg>

<svg xmlns="http://www.w3.org/2000/svg" width="24" height="24" version="1.1" viewBox="0 0 24 24">
 <path style="opacity:0.2" d="m 11.500441,12.500001 c -0.63013,-1.01e-4 -1.260292,0.123073 -1.7266009,0.368498 L 2.6990309,16.59145 c -0.9326183,0.490848 -0.931752,1.326614 8.65e-4,1.817463 l 7.0739407,3.722951 c 0.9326174,0.490848 2.5205854,0.490848 3.4532014,0 l 7.073942,-3.722951 c 0.932616,-0.490847 0.931738,-1.326616 -9e-4,-1.817463 l -7.073039,-3.722951 c -0.466309,-0.245425 -1.09647,-0.368398 -1.7266,-0.368498 z"/>
 <path style="fill:#ea6e41" d="m 11.500441,12.000001 c -0.63013,-1.01e-4 -1.260292,0.123073 -1.7266009,0.368498 L 2.6990309,16.09145 c -0.9326183,0.490848 -0.931752,1.326614 8.65e-4,1.817463 l 7.0739407,3.722951 c 0.9326174,0.490848 2.5205854,0.490848 3.4532014,0 l 7.073942,-3.722951 c 0.932616,-0.490847 0.931738,-1.326616 -9e-4,-1.817463 l -7.073039,-3.722951 c -0.466309,-0.245425 -1.09647,-0.368398 -1.7266,-0.368498 z"/>
 <path style="opacity:0.2;fill:#ffffff" d="M 11.5,12.000001 C 10.86987,11.9999 10.239746,12.12274 9.7734376,12.368165 L 2.6992191,16.091797 C 2.1153999,16.399068 1.8975459,16.841625 2.0449223,17.25 2.1328498,17.006301 2.3507864,16.775182 2.6992191,16.591797 L 9.7734376,12.868165 C 10.239746,12.62274 10.86987,12.4999 11.5,12.500001 c 0.630131,1e-4 1.260254,0.122739 1.726562,0.368164 l 7.073242,3.723632 c 0.34844,0.183384 0.567038,0.414504 0.655274,0.658203 0.146863,-0.408375 -0.07144,-0.850933 -0.655274,-1.158203 L 13.226562,12.368165 C 12.760254,12.12274 12.130131,12.000101 11.5,12.000001 Z"/>
 <path style="opacity:0.2" d="m 11.500441,7.5000008 c -0.63013,-1.005e-4 -1.260292,0.1230735 -1.7266009,0.368498 L 2.6990309,11.59145 c -0.9326183,0.490849 -0.931752,1.326615 8.65e-4,1.817464 l 7.0739407,3.72295 c 0.9326174,0.490848 2.5205854,0.490848 3.4532014,0 l 7.073942,-3.72295 c 0.932616,-0.490848 0.931738,-1.326617 -9e-4,-1.817464 L 13.227041,7.8684988 c -0.466309,-0.2454245 -1.09647,-0.3683975 -1.7266,-0.368498 z"/>
 <path style="fill:#aed351" d="m 11.500441,7.0000008 c -0.63013,-1.005e-4 -1.260292,0.1230735 -1.7266009,0.368498 L 2.6990309,11.09145 c -0.9326183,0.490849 -0.931752,1.326615 8.65e-4,1.817464 l 7.0739407,3.72295 c 0.9326174,0.490848 2.5205854,0.490848 3.4532014,0 l 7.073942,-3.72295 c 0.932616,-0.490848 0.931738,-1.326617 -9e-4,-1.817464 L 13.227041,7.3684988 c -0.466309,-0.2454245 -1.09647,-0.3683975 -1.7266,-0.368498 z"/>
 <path style="opacity:0.2;fill:#ffffff" d="M 11.5,7.0000008 C 10.86987,6.9999003 10.239746,7.1227403 9.7734376,7.3681648 L 2.6992191,11.091798 c -0.5838192,0.307271 -0.8016732,0.749828 -0.6542968,1.158203 0.087927,-0.243699 0.3058641,-0.474819 0.6542968,-0.658203 L 9.7734376,7.8681648 C 10.239746,7.6227403 10.86987,7.4999003 11.5,7.5000008 c 0.630131,1.005e-4 1.260254,0.1227395 1.726562,0.368164 l 7.073242,3.7236332 c 0.34844,0.183384 0.567038,0.414503 0.655274,0.658203 0.146863,-0.408375 -0.07144,-0.850933 -0.655274,-1.158203 L 13.226562,7.3681648 C 12.760254,7.1227403 12.130131,7.0001013 11.5,7.0000008 Z"/>
 <path style="opacity:0.2" d="m 11.500441,2.5000014 c -0.63013,-1.005e-4 -1.260292,0.1230735 -1.7266009,0.368498 L 2.6990309,6.5914503 c -0.9326183,0.4908485 -0.931752,1.3266145 8.65e-4,1.8174635 l 7.0739407,3.7229512 c 0.9326174,0.490848 2.5205854,0.490847 3.4532014,0 L 20.30098,8.4089138 c 0.932616,-0.4908475 0.931738,-1.3266165 -9e-4,-1.8174635 L 13.227041,2.8684994 c -0.466309,-0.2454245 -1.09647,-0.3683975 -1.7266,-0.368498 z"/>
 <path style="fill:#3b9dda" d="m 11.500441,2.0000012 c -0.63013,-1.005e-4 -1.260292,0.1230735 -1.7266009,0.368498 L 2.6990309,6.0914503 c -0.9326183,0.4908485 -0.931752,1.3266145 8.65e-4,1.8174635 l 7.0739407,3.7229512 c 0.9326174,0.490848 2.5205854,0.490847 3.4532014,0 L 20.30098,7.9089138 c 0.932616,-0.4908475 0.931738,-1.3266165 -9e-4,-1.8174635 L 13.227041,2.3684992 c -0.466309,-0.2454245 -1.09647,-0.3683975 -1.7266,-0.368498 z"/>
 <path style="opacity:0.2;fill:#ffffff" d="M 11.5,2.000001 C 10.86987,1.9999005 10.239746,2.1227406 9.7734376,2.368165 L 2.6992191,6.0917978 C 2.1153999,6.3990688 1.8975459,6.8416258 2.0449223,7.2500008 2.1328498,7.0063018 2.3507864,6.7751823 2.6992191,6.5917978 L 9.7734376,2.868165 C 10.239746,2.6227405 10.86987,2.4999005 11.5,2.500001 c 0.630131,1.005e-4 1.260254,0.1227395 1.726562,0.368164 l 7.073242,3.7236328 c 0.34844,0.183384 0.567038,0.4145035 0.655274,0.658203 0.146863,-0.408375 -0.07144,-0.850933 -0.655274,-1.158203 L 13.226562,2.368165 C 12.760254,2.1227406 12.130131,2.0001015 11.5,2.000001 Z"/>
</svg>
